X:1
T:Title
%%score { ( 1 3 ) | ( 2 4 ) }
L:1/8
Q:1/4=100
M:4/4
K:D
V:1 treble nm="Grand Piano"
V:3 treble 
V:2 bass 
V:4 bass 
V:1
 F3 E DEF[EG] | [FA]2 [GB]2 [FA]2 [A,DF]2 | G2 z2 z4 | F2 z2 z4 | F3 E DEF[EG] | %5
w: W.~Stillman~Martin * * * * *|||||
 [FA]2 [GB]2 [FA]2 [DF]2 | [DA]4 [DF]2 [CE]2 | D6 z2 | [Fd]2 [FB]>[Fd] [Gc]2 [EG]2 | %9
w: ||||
 [Gc]2 [EG]>[Gc] [GB]2 [DF]2 | [FA]2 [^DB]>[DF] [FA]2 G2 |[M:9/8] B2 c [Fd] c2- [Gc]3 | %12
w: |||
[M:4/4] [Fd]2 [FB]>[Fd] [Gc]2 [EG]2 | [Gc]2 [EG]>[Gc] [GB]2 F2 |[M:9/8] F2 G ABd- d2 z | %15
w: |||
[M:4/4] [DF]2 [DF][CE] D4 |] %16
w: |
V:2
 [D,A,D]3 [D,G,C] [D,F,A,][D,G,C][D,A,D][D,A,] | [D,D]2 [D,D]2 [D,D]2 D,2 | z2 ED A,,2 A,,2 | %3
 D,4 [D,F,]4 | [D,A,D]3 [D,G,C] [D,F,A,][D,G,C][D,A,D][D,A,] | [D,D]2 [D,D]2 [D,D]2 [D,A,]2 | %6
 [A,,F,]4 [A,,A,]2 [A,,G,]2 | [D,F,]6 z2 | [D,A,]2 [D,A,]>[D,A,] [E,A,]2 [C,A,]2 | %9
 [A,,A,]2 [A,,A,]>[A,,A,] [D,A,]2 [D,A,]2 | [D,A,]2 [B,,B,]>[B,,B,] [^D,B,]2 [E,B,E]2 | %11
[M:9/8] [E,^G,D]2 [E,G,E] [E,G,] [A,,A,]2- [A,,A,]3 | %12
[M:4/4] [D,A,]2 [D,A,]>[D,A,] [E,A,]2 [C,A,]2 | [A,,A,]2 [A,,A,]>[A,,A,] [D,A,]2 [D,A,D]2 | %14
[M:9/8] [D,A,D]2 [E,A,C] [F,A,D][G,D][G,B,D]- [G,B,D]2 z | %15
[M:4/4] [A,,A,]2 [A,,A,][A,,G,] [D,F,]4 |] %16
V:3
 x8 | x8 | [A,A]4 [A,CA]2 [A,A]2 | [A,A]2- [A,-EA-][A,FA-] [DA-]2 [A,A]2 | x8 | x8 | x8 | x8 | x8 | %9
 x8 | x8 |[M:9/8] z3 z E2 z3 |[M:4/4] x8 | x8 |[M:9/8] x9 |[M:4/4] x8 |] %16
V:4
 x8 | x8 | A,,4 z4 | x8 | x8 | x8 | x8 | x8 | x8 | x8 | x8 |[M:9/8] x9 |[M:4/4] x8 | x8 | %14
[M:9/8] x9 |[M:4/4] x8 |] %16

